X:1
T:High Road to Gairloch  "CCPB Sep-1995"
M:C|
L:1/8
Q:80
C:2.
S:March
K:HP
|: {g}e3/2f/2{gef}eA | \
{gcd}c{e}A{gef}e2 | \
{Gdc}d{g}f3/4e/4{Gdc}d{e}G |
{gBd}B{e}G{dc}d2 | \
{g}e3/2f/2{gef}eA | \
{gcd}c{e}A{gef}e2 |
{g}A3/2B/2{gcd}c{e}A | \
{gBd}B2{G}A2 :: \
{gcd}c{e}A{GAG}A3/2B/2 |
{gcd}c{e}A{gcd}c2 | \
{Gdc}d3/2c/2{gBd}B3/2c/2 | \
{Gdc}d{e}B{Gdc}d2 |
{gcd}c{e}A{GAG}A3/2B/2 | \
{gcd}c{e}A{gcd}ce | \
{g}A3/2B/2{gcd}c{e}A |
{gBd}B2{G}A2 :|
